src/assets/img/icons/dark/icon-telegram.svg

<svg width="20" height="18" viewBox="0 0 20 18" fill="none" xmlns="http://www.w3.org/2000/svg">
<path fill-rule="evenodd" clip-rule="evenodd" d="M5.1077 10.7074L0.653847 9.02955C0.201383 8.85862 0.197844 8.21397 0.648538 8.03837L18.9264 0.921647C19.314 0.77055 19.714 1.113 19.629 1.5237L16.3491 17.4484C16.2718 17.8247 15.8353 17.995 15.5268 17.7687L11.0493 14.4877C10.7774 14.2888 10.4069 14.2993 10.1467 14.5134L7.66379 16.5558C7.37592 16.7938 6.94174 16.6614 6.83143 16.3026L5.1077 10.7074ZM15.2575 4.40387L6.55336 9.8142C6.21947 10.0225 6.06255 10.4291 6.1705 10.8095L7.11141 14.147C7.17807 14.3833 7.51845 14.3594 7.5509 14.1149L7.79571 12.2848C7.84173 11.9401 8.00454 11.6227 8.25703 11.3853L15.4404 4.64597C15.5749 4.51996 15.4139 4.30644 15.2575 4.40387Z" fill="white"/>
</svg>

<svg xmlns="http://www.w3.org/2000/svg" width="20" height="18" fill="none"><path fill="#fff" fill-rule="evenodd" d="M5.1 10.7L.66 9.04a.53.53 0 010-1L18.93.94c.38-.16.78.18.7.6l-3.28 15.92a.52.52 0 01-.82.32l-4.48-3.28a.74.74 0 00-.9.02l-2.49 2.05a.52.52 0 01-.83-.26l-1.72-5.6zm10.16-6.3l-8.7 5.41c-.34.21-.5.62-.39 1l.94 3.34c.07.23.4.2.44-.04l.25-1.83c.04-.34.2-.66.46-.9l7.18-6.73c.13-.13-.03-.34-.18-.25z" clip-rule="evenodd"/></svg>
